X: 32744
T: Polonaise Från Sexdrega
R: waltz
M: 3/4
K: Gmajor
G/A/B/c/ dg gb|e~e d~d c2|B~B A~A GA/B/|c~c B~B A2|
GA Bd eg|~fe/d/ ef g>g|g/f/e/f/ g/f/e/d/ c/B/A/G/|B/A/G/F/ FG G2:|
|:B>B A~A GA/B/|c>c B~B A2|B>B A~A GA/B/|c>c B~B A2|
GA Bd eg|~fe/d/ ef g>g|g/f/e/f/ g/f/e/d/ c/B/A/G/|B/A/G/F/ FG G2:|

